lib/brands/logos/android-old.svg

<svg xmlns="http://www.w3.org/2000/svg" fill="none" aria-hidden="true" viewBox="0 0 207 57"><g id="Android (Old)"><g id="Group"><g id="Union"><path fill="#78C257" d="M162.969 16.4662C162.358 16.4662 161.782 16.347 161.238 16.1086C160.695 15.8703 160.218 15.5462 159.808 15.1362C159.398 14.7263 159.074 14.2496 158.836 13.7062C158.597 13.1628 158.478 12.586 158.478 11.9758C158.478 11.3657 158.597 10.7842 158.836 10.2312C159.074 9.67825 159.398 9.19682 159.808 8.78682C160.218 8.37691 160.695 8.05278 161.238 7.8144C161.782 7.57609 162.358 7.45692 162.969 7.45688C163.579 7.45692 164.16 7.57605 164.713 7.8144C165.266 8.05278 165.748 8.37691 166.158 8.78682C166.567 9.19682 166.892 9.67825 167.13 10.2312C167.368 10.7842 167.487 11.3657 167.487 11.9758C167.487 12.586 167.368 13.1628 167.13 13.7062C166.892 14.2496 166.567 14.7263 166.158 15.1362C165.748 15.5462 165.266 15.8703 164.713 16.1086C164.16 16.347 163.579 16.4662 162.969 16.4662Z"/><path fill="#78C257" fill-rule="evenodd" d="M73.3887 34.0242C73.3887 31.8104 73.7593 29.7448 74.5006 27.8275C75.2418 25.9101 76.2796 24.2399 77.6138 22.8167C78.948 21.3935 80.5441 20.2767 82.4022 19.4663C84.2602 18.6559 86.2962 18.2507 88.51 18.2506C90.1901 18.2507 91.722 18.4978 93.1057 18.9919C94.4893 19.4861 95.8137 20.2866 97.0787 21.3935V9.74121H104.61V49.2048H97.0787V46.6549C95.8137 47.7816 94.4893 48.5871 93.1057 49.0714C91.722 49.5557 90.1901 49.7978 88.51 49.7978C86.2962 49.7978 84.2602 49.3926 82.4022 48.5822C80.5441 47.7717 78.948 46.6549 77.6138 45.2318C76.2796 43.8086 75.2418 42.1383 74.5006 40.221C73.7593 38.3036 73.3887 36.2381 73.3887 34.0242ZM89.4884 42.7115C90.0814 42.7116 90.7041 42.6473 91.3564 42.5188C92.0086 42.3904 92.6659 42.1729 93.3281 41.8665C93.9902 41.5602 94.6376 41.15 95.2701 40.6361C95.9026 40.1222 96.5055 39.4896 97.0787 38.7385V29.3099C96.5055 28.5588 95.9026 27.9313 95.2701 27.4272C94.6376 26.9232 93.9902 26.513 93.3281 26.1967C92.6659 25.8805 92.0086 25.6581 91.3564 25.5296C90.7041 25.4012 90.0814 25.3369 89.4884 25.3369C88.3222 25.3369 87.2301 25.5543 86.2122 25.9892C85.1942 26.4241 84.3096 27.0319 83.5585 27.8126C82.8074 28.5934 82.2193 29.5126 81.7944 30.57C81.3694 31.6276 81.1569 32.7789 81.1569 34.0242C81.1569 35.2695 81.3694 36.4209 81.7944 37.4784C82.2193 38.5359 82.8074 39.455 83.5585 40.2358C84.3096 41.0166 85.1942 41.6244 86.2122 42.0592C87.2301 42.4941 88.3222 42.7116 89.4884 42.7115Z" clip-rule="evenodd"/><path fill="#78C257" fill-rule="evenodd" d="M6.69456 27.8274C5.95332 29.7448 5.5827 31.8103 5.5827 34.0242C5.5827 36.238 5.95332 38.3036 6.69456 40.2209C7.4358 42.1383 8.47353 43.8085 9.80776 45.2317C11.142 46.6549 12.7381 47.7717 14.5962 48.5821C16.4542 49.3925 18.4901 49.7977 20.704 49.7977C22.3841 49.7977 23.9111 49.5507 25.2848 49.0565C26.6586 48.5623 27.9879 47.7519 29.2727 46.6252V49.2048H36.8037V18.8436H29.2727V21.4231C27.9879 20.2964 26.6586 19.486 25.2848 18.9918C23.9111 18.4977 22.3841 18.2506 20.704 18.2506C18.4901 18.2506 16.4542 18.6558 14.5962 19.4662C12.7381 20.2767 11.142 21.3935 9.80776 22.8166C8.47353 24.2398 7.4358 25.9101 6.69456 27.8274ZM23.5503 42.5188C22.898 42.6473 22.2754 42.7115 21.6824 42.7115C20.5162 42.7115 19.4241 42.4941 18.4061 42.0592C17.3882 41.6243 16.5036 41.0165 15.7525 40.2357C15.0014 39.455 14.4133 38.5359 13.9884 37.4783C13.5634 36.4209 13.3509 35.2695 13.3509 34.0242C13.3509 32.7789 13.5634 31.6275 13.9884 30.57C14.4133 29.5125 15.0014 28.5934 15.7525 27.8126C16.5036 27.0318 17.3882 26.424 18.4061 25.9891C19.4241 25.5543 20.5162 25.3369 21.6824 25.3368C22.2754 25.3369 22.898 25.4011 23.5503 25.5296C24.2026 25.6581 24.8598 25.8804 25.522 26.1967C26.1842 26.513 26.8315 26.9231 27.4641 27.4271C28.0966 27.9312 28.6994 28.5588 29.2727 29.3099V38.7384C28.6994 39.4896 28.0966 40.1221 27.4641 40.636C26.8315 41.15 26.1842 41.5601 25.522 41.8665C24.8598 42.1729 24.2026 42.3903 23.5503 42.5188Z" clip-rule="evenodd"/><path fill="#78C257" d="M48.9612 31.9487C48.9612 28.2594 52.0594 25.773 55.6269 25.7456C59.1944 25.773 62.2926 28.2594 62.2926 31.9487V49.2048H69.8236V32.1562C69.7816 25.0472 63.6251 18.3464 55.7321 18.2506H55.5217C47.6287 18.3464 41.4722 25.0472 41.4302 32.1562V49.2048H48.9612V31.9487Z"/><path fill="#78C257" fill-rule="evenodd" d="M133.68 48.6118C135.618 49.4024 137.683 49.7977 139.877 49.7977C142.071 49.7977 144.132 49.4024 146.059 48.6118C147.986 47.8211 149.676 46.7191 151.129 45.3058C152.582 43.8925 153.728 42.2223 154.569 40.2951C155.409 38.3678 155.829 36.2775 155.829 34.0242C155.829 31.8301 155.409 29.7744 154.569 27.8571C153.728 25.9397 152.587 24.2695 151.144 22.8463C149.701 21.4231 148.011 20.3014 146.074 19.4811C144.137 18.6608 142.071 18.2506 139.877 18.2506C137.683 18.2506 135.613 18.6608 133.666 19.4811C131.719 20.3014 130.024 21.4231 128.581 22.8463C127.138 24.2695 125.996 25.9397 125.156 27.8571C124.316 29.7744 123.896 31.8301 123.896 34.0242C123.896 36.2775 124.316 38.3678 125.156 40.2951C125.996 42.2223 127.143 43.8925 128.596 45.3058C130.048 46.7191 131.743 47.8211 133.68 48.6118ZM143.065 42.074C142.066 42.499 141.004 42.7115 139.877 42.7115C138.731 42.7115 137.658 42.499 136.66 42.074C135.662 41.6491 134.792 41.0511 134.051 40.2802C133.31 39.5093 132.727 38.5952 132.302 37.5376C131.877 36.4801 131.664 35.309 131.664 34.0242C131.664 32.7591 131.882 31.5979 132.317 30.5403C132.751 29.4829 133.339 28.5687 134.081 27.7977C134.822 27.0269 135.692 26.424 136.69 25.9891C137.688 25.5543 138.751 25.3369 139.877 25.3368C140.984 25.3369 142.032 25.5543 143.02 25.9891C144.008 26.424 144.878 27.0269 145.629 27.7977C146.38 28.5687 146.973 29.4829 147.408 30.5403C147.843 31.5979 148.06 32.7591 148.06 34.0242C148.06 35.309 147.848 36.4801 147.423 37.5376C146.998 38.5952 146.415 39.5093 145.674 40.2802C144.932 41.0511 144.063 41.6491 143.065 42.074Z" clip-rule="evenodd"/><path fill="#78C257" d="M166.734 18.8436H159.203V49.2048H166.734V18.8436Z"/><path fill="#78C257" fill-rule="evenodd" d="M170.196 34.0242C170.196 31.8104 170.567 29.7448 171.308 27.8275C172.049 25.9101 173.087 24.2399 174.421 22.8167C175.756 21.3935 177.352 20.2767 179.21 19.4663C181.068 18.6559 183.104 18.2507 185.318 18.2506C186.998 18.2507 188.53 18.4978 189.913 18.9919C191.297 19.4861 192.621 20.2866 193.886 21.3935V9.74121H201.417V49.2048H193.886V46.6549C192.621 47.7816 191.297 48.5871 189.913 49.0714C188.53 49.5557 186.998 49.7978 185.318 49.7978C183.104 49.7978 181.068 49.3926 179.21 48.5822C177.352 47.7717 175.756 46.6549 174.421 45.2318C173.087 43.8086 172.049 42.1383 171.308 40.221C170.567 38.3036 170.196 36.2381 170.196 34.0242ZM186.296 42.7115C186.889 42.7116 187.512 42.6473 188.164 42.5188C188.816 42.3904 189.473 42.1729 190.136 41.8665C190.798 41.5602 191.445 41.15 192.078 40.6361C192.71 40.1222 193.313 39.4896 193.886 38.7385V29.3099C193.313 28.5588 192.71 27.9313 192.078 27.4272C191.445 26.9232 190.798 26.513 190.136 26.1967C189.473 25.8805 188.816 25.6581 188.164 25.5296C187.512 25.4012 186.889 25.3369 186.296 25.3369C185.13 25.3369 184.038 25.5543 183.02 25.9892C182.002 26.4241 181.117 27.0319 180.366 27.8126C179.615 28.5934 179.027 29.5126 178.602 30.57C178.177 31.6276 177.964 32.7789 177.965 34.0242C177.964 35.2695 178.177 36.4209 178.602 37.4784C179.027 38.5359 179.615 39.455 180.366 40.2358C181.117 41.0166 182.002 41.6244 183.02 42.0592C184.038 42.4941 185.13 42.7116 186.296 42.7115Z" clip-rule="evenodd"/><path fill="#78C257" d="M115.906 31.9486C115.906 28.2584 118.132 25.6546 123.178 25.6546V18.0582C112.523 18.0582 108.417 25.0471 108.375 32.1562V49.2047H115.906V31.9486Z"/></g></g></g></svg>

<svg xmlns="http://www.w3.org/2000/svg" fill="none" aria-hidden="true" viewBox="0 0 207 57"><path fill="#78C257" d="M162.969 16.466a4.268 4.268 0 0 1-1.731-.357 4.627 4.627 0 0 1-2.402-2.402 4.25 4.25 0 0 1-.358-1.731c0-.61.119-1.192.358-1.745a4.582 4.582 0 0 1 2.402-2.417 4.264 4.264 0 0 1 1.731-.357c.61 0 1.191.12 1.744.357a4.593 4.593 0 0 1 1.445.973c.409.41.734.891.972 1.444a4.37 4.37 0 0 1 .357 1.745c0 .61-.119 1.187-.357 1.73a4.644 4.644 0 0 1-.972 1.43 4.59 4.59 0 0 1-1.445.973 4.358 4.358 0 0 1-1.744.357Z"/><path fill="#78C257" fill-rule="evenodd" d="M73.389 34.024c0-2.214.37-4.28 1.112-6.197.74-1.917 1.779-3.587 3.113-5.01 1.334-1.424 2.93-2.54 4.788-3.35 1.858-.811 3.894-1.216 6.108-1.216 1.68 0 3.212.247 4.596.74 1.383.495 2.708 1.296 3.973 2.402V9.742h7.531v39.464h-7.531v-2.55c-1.265 1.127-2.59 1.932-3.973 2.416-1.384.485-2.916.727-4.596.727-2.214 0-4.25-.405-6.108-1.216-1.858-.81-3.454-1.927-4.788-3.35s-2.372-3.094-3.113-5.011c-.742-1.917-1.112-3.983-1.112-6.197Zm16.1 8.688c.592 0 1.215-.065 1.867-.193a8.695 8.695 0 0 0 1.972-.652 9.242 9.242 0 0 0 1.942-1.23 11.112 11.112 0 0 0 1.809-1.898v-9.43a10.646 10.646 0 0 0-1.809-1.882 10.13 10.13 0 0 0-1.942-1.23 8.3 8.3 0 0 0-1.972-.667 9.679 9.679 0 0 0-1.868-.193 8.25 8.25 0 0 0-3.276.652 8.005 8.005 0 0 0-2.654 1.824c-.75.78-1.339 1.7-1.764 2.757-.425 1.058-.637 2.209-.637 3.454s.212 2.397.637 3.454a8.504 8.504 0 0 0 1.764 2.758 8.002 8.002 0 0 0 2.654 1.823 8.249 8.249 0 0 0 3.276.653ZM6.695 27.827c-.742 1.918-1.112 3.983-1.112 6.197s.37 4.28 1.112 6.197c.74 1.917 1.779 3.588 3.113 5.01 1.334 1.424 2.93 2.54 4.788 3.351 1.858.81 3.894 1.216 6.108 1.216 1.68 0 3.207-.247 4.58-.742 1.375-.494 2.704-1.304 3.989-2.43v2.579h7.53V18.844h-7.53v2.58c-1.285-1.128-2.614-1.938-3.988-2.432s-2.9-.741-4.581-.741c-2.214 0-4.25.405-6.108 1.215-1.858.81-3.454 1.927-4.788 3.35-1.334 1.424-2.372 3.094-3.113 5.011ZM23.55 42.52a9.67 9.67 0 0 1-1.868.193 8.251 8.251 0 0 1-3.276-.653 8.004 8.004 0 0 1-2.653-1.823 8.502 8.502 0 0 1-1.765-2.758c-.425-1.057-.637-2.209-.637-3.454s.212-2.396.637-3.454a8.504 8.504 0 0 1 1.764-2.757 8.004 8.004 0 0 1 2.654-1.824 8.255 8.255 0 0 1 3.276-.652 9.63 9.63 0 0 1 1.868.193c.653.128 1.31.35 1.972.667a10.1 10.1 0 0 1 1.942 1.23 10.65 10.65 0 0 1 1.809 1.883v9.428a11.112 11.112 0 0 1-1.809 1.898 9.244 9.244 0 0 1-1.942 1.23 8.698 8.698 0 0 1-1.972.653Z" clip-rule="evenodd"/><path fill="#78C257" d="M48.961 31.949c0-3.69 3.098-6.176 6.666-6.203 3.567.027 6.666 2.513 6.666 6.203v17.256h7.53V32.156c-.041-7.109-6.198-13.81-14.09-13.905h-.211c-7.893.095-14.05 6.796-14.092 13.905v17.049h7.531V31.949Z"/><path fill="#78C257" fill-rule="evenodd" d="M133.68 48.612c1.938.79 4.003 1.186 6.197 1.186s4.255-.396 6.182-1.186a15.793 15.793 0 0 0 5.07-3.306c1.453-1.413 2.599-3.084 3.44-5.01.84-1.928 1.26-4.018 1.26-6.272 0-2.194-.42-4.25-1.26-6.167a15.971 15.971 0 0 0-3.425-5.01c-1.443-1.424-3.133-2.546-5.07-3.366-1.937-.82-4.003-1.23-6.197-1.23s-4.264.41-6.211 1.23c-1.947.82-3.642 1.942-5.085 3.365a15.955 15.955 0 0 0-3.425 5.011c-.84 1.917-1.26 3.973-1.26 6.167 0 2.254.42 4.344 1.26 6.271.84 1.927 1.987 3.597 3.44 5.01a15.736 15.736 0 0 0 5.084 3.307Zm9.385-6.538a8.056 8.056 0 0 1-3.188.638 8.127 8.127 0 0 1-3.217-.638 7.839 7.839 0 0 1-2.609-1.794 8.462 8.462 0 0 1-1.749-2.742c-.425-1.058-.638-2.229-.638-3.514 0-1.265.218-2.426.653-3.484a8.637 8.637 0 0 1 1.764-2.742 8.03 8.03 0 0 1 2.609-1.809 7.896 7.896 0 0 1 3.187-.652 7.72 7.72 0 0 1 3.143.652 8.249 8.249 0 0 1 2.609 1.809 8.539 8.539 0 0 1 1.779 2.742c.435 1.058.652 2.22.652 3.484 0 1.285-.212 2.456-.637 3.514a8.462 8.462 0 0 1-1.749 2.742 7.849 7.849 0 0 1-2.609 1.794Z" clip-rule="evenodd"/><path fill="#78C257" d="M166.734 18.844h-7.531v30.36h7.531v-30.36Z"/><path fill="#78C257" fill-rule="evenodd" d="M170.196 34.024c0-2.214.371-4.28 1.112-6.197.741-1.917 1.779-3.587 3.113-5.01 1.335-1.424 2.931-2.54 4.789-3.35 1.858-.811 3.894-1.216 6.108-1.216 1.68 0 3.212.247 4.595.74 1.384.495 2.708 1.296 3.973 2.402V9.742h7.531v39.464h-7.531v-2.55c-1.265 1.127-2.589 1.932-3.973 2.416-1.383.485-2.915.727-4.595.727-2.214 0-4.25-.405-6.108-1.216-1.858-.81-3.454-1.927-4.789-3.35-1.334-1.423-2.372-3.094-3.113-5.011-.741-1.917-1.112-3.983-1.112-6.197Zm16.1 8.688a9.66 9.66 0 0 0 1.868-.193 8.713 8.713 0 0 0 1.972-.652 9.258 9.258 0 0 0 1.942-1.23 11.121 11.121 0 0 0 1.808-1.898v-9.43a10.654 10.654 0 0 0-1.808-1.882 10.148 10.148 0 0 0-1.942-1.23 8.316 8.316 0 0 0-1.972-.667 9.677 9.677 0 0 0-1.868-.193 8.25 8.25 0 0 0-3.276.652 8.005 8.005 0 0 0-2.654 1.824 8.508 8.508 0 0 0-1.764 2.757c-.425 1.058-.638 2.209-.637 3.454-.001 1.245.212 2.397.637 3.454a8.507 8.507 0 0 0 1.764 2.758 8.002 8.002 0 0 0 2.654 1.823 8.249 8.249 0 0 0 3.276.653Z" clip-rule="evenodd"/><path fill="#78C257" d="M115.906 31.949c0-3.69 2.226-6.294 7.272-6.294v-7.597c-10.655 0-14.761 6.99-14.803 14.098v17.049h7.531V31.949Z"/></svg>
